X:1
T:[ID 2-20]
T:[ID 2-20]
T:Bezeichnung standardisiert: Malbrook; Alla Malboroug In anderer Quelle: Winscher Tanz - Hs. aus Arendsee (Anm. S. Wascher);  Malbrook (Anm. S. Wascher); Marlbrough s'en va-t-en guerre (1709);
T:Urheber unbekannt Erstbeleg: 1709 (Datum in der schriftlichen Quelle) Datum in der hier transkribierten schriftlichen Quelle: 1792
C:Urheber unbekannt
C:Erstbeleg: 1709 (Datum in der schriftlichen Quelle)
C:Datum in der hier transkribierten schriftlichen Quelle: 1792
L:1/8
M:6/8
K:G
V:1 treble 
V:1
 G/A/ | B2 B BAB | c3 BcB | A2 A AGA | B3 G2 G/A/ | B2 B BAB | c3 B2 d | B2 B AGA | G3- G2 :: G | %10
 d2 d e2 e | d2 e/f/ g2 G | d2 d e2 e | d2 e/f/ g2 G/A/ | B2 B BAB | c3 BcB |"^1)" x6 |"^1)" x6 | %18
 A3 G2 G/A/ | B2 B BAB | c3 B2 d/c/ | BAB BAB | G3- G2 :| %23

